dist/intermediate-svg/message-status--success.svg

<?xml version="1.0" encoding="utf-8"?><svg xmlns="http://www.w3.org/2000/svg" viewBox="0 0 20 14.04" width="20" height="14.04"><path d="M9.26 5.71a1 1 0 01-1.07 0L.45.8A.33.33 0 11.8.24l7.39 4.67a1 1 0 001.07 0L16.6.24a.33.33 0 01.46.11.33.33 0 01-.06.45z" fill="#333"/><path d="M10.72 11a.35.35 0 01-.34.35H1a1 1 0 01-1-1V1a1 1 0 011-1h15.4a1 1 0 011 1v3.28a.34.34 0 01-.34.34.35.35 0 01-.35-.34v-2.6a1 1 0 00-1-1h-14a1 1 0 00-1 1v7.93a1 1 0 001 1h8.7a.34.34 0 01.31.39z" fill="#333"/><circle cx="15.02" cy="9.06" r="4.98" fill="#69c26a"/><path d="M15.1 10.42a1 1 0 01-1.42 0l-1.14-1.19a.46.46 0 010-.64.45.45 0 01.64 0l.49.48a1 1 0 001.41 0l1.73-1.72a.46.46 0 01.69 0 .48.48 0 010 .66z" fill="#fff"/></svg>

<?xml version="1.0" encoding="utf-8"?><svg xmlns="http://www.w3.org/2000/svg" viewBox="0 0 20 14.04" width="20" height="14.04"><path d="M9.26,5.71a1,1,0,0,1-1.07,0L.45.8A.33.33,0,1,1,.8.24L8.19,4.91a1,1,0,0,0,1.07,0L16.6.24a.33.33,0,0,1,.46.11A.33.33,0,0,1,17,.8Z" fill="#333"/><path d="M10.72,11a.35.35,0,0,1-.34.35H1a1,1,0,0,1-1-1V1A1,1,0,0,1,1,0H16.4a1,1,0,0,1,1,1V4.28a.34.34,0,0,1-.34.34.35.35,0,0,1-.35-.34V1.68a1,1,0,0,0-1-1h-14a1,1,0,0,0-1,1V9.61a1,1,0,0,0,1,1h8.7A.34.34,0,0,1,10.72,11Z" fill="#333"/><circle cx="15.02" cy="9.06" r="4.98" fill="#69c26a"/><path d="M15.1,10.42a1,1,0,0,1-1.42,0L12.54,9.23a.46.46,0,0,1,0-.64.45.45,0,0,1,.64,0l.49.48a1,1,0,0,0,1.41,0l1.73-1.72a.46.46,0,0,1,.69,0,.48.48,0,0,1,0,.66Z" fill="#fff"/></svg>
